images/marker-crate-medkit.svg

<svg xmlns="http://www.w3.org/2000/svg" viewBox="0 0 64 64" enable-background="new 0 0 64 64"><style type="text/css">.st0{fill:#682323;} .st1{fill:#C8CAC9;}</style><circle class="st0" cx="32" cy="32" r="28.9"/><path class="st1" d="M10.1 10.1h43.8v43.8h-43.8z"/><path class="st0" d="M25 20.6v-.9c0-.7.5-1.2 1.2-1.2h11.6c.7 0 1.2.5 1.2 1.2v.9h4v-.3c0-2.9-2.4-5.3-5.3-5.3h-11.5c-2.9 0-5.3 2.4-5.3 5.3v.3h4.1zM49.8 24.6v-3.6h-10.8v.4c0 .7-.5 1.2-1.2 1.2h-11.6c-.7 0-1.2-.5-1.2-1.2v-.4h-10.8v3.6h35.6zM14.2 25.9v15.8c0 3.7 2.8 6.8 6.4 7.2v-3.3h2.3v3.4h18.1v-3.3h2.3v3.3c3.6-.4 6.4-3.5 6.4-7.2v-15.9h-35.5zm25.8 13.2h-5.5v5.5h-5v-5.5h-5.5v-5h5.5v-5.5h5v5.5h5.5v5z"/></svg>

<?xml version="1.0" encoding="utf-8"?>
<!-- Generator: Adobe Illustrator 21.0.1, SVG Export Plug-In . SVG Version: 6.00 Build 0)  -->
<svg version="1.1" id="Layer_1" xmlns="http://www.w3.org/2000/svg" xmlns:xlink="http://www.w3.org/1999/xlink" x="0px" y="0px"
	 viewBox="0 0 64 64" style="enable-background:new 0 0 64 64;" xml:space="preserve">
<style type="text/css">
	.st0{fill:#682323;}
	.st1{fill:#C8CAC9;}
</style>
<g>
	<circle class="st0" cx="32" cy="32" r="28.9"/>
</g>
<rect x="10.1" y="10.1" class="st1" width="43.8" height="43.8"/>
<g>
	<path class="st0" d="M25,20.6v-0.9c0-0.7,0.5-1.2,1.2-1.2h11.6c0.7,0,1.2,0.5,1.2,1.2v0.9h4v-0.3c0-2.9-2.4-5.3-5.3-5.3H26.2
		c-2.9,0-5.3,2.4-5.3,5.3v0.3H25z"/>
	<path class="st0" d="M49.8,24.6V21H39v0.4c0,0.7-0.5,1.2-1.2,1.2H26.2c-0.7,0-1.2-0.5-1.2-1.2V21H14.2v3.6H49.8z"/>
	<path class="st0" d="M14.2,25.9v15.8c0,3.7,2.8,6.8,6.4,7.2v-3.3h2.3V49H41v-3.3h2.3V49c3.6-0.4,6.4-3.5,6.4-7.2V25.9H14.2z
		 M40,39.1h-5.5v5.5h-5v-5.5H24v-5h5.5v-5.5h5v5.5H40V39.1z"/>
</g>
</svg>
